!!!OTL: Triste es Ausentarse
**kern
*I"Guitarra acústica
*I'Guit. ac.
!!pagebreak:original
*clefG2
*Trd0c0
*k[]
*C:
*M6/8
=1
!LO:TX:t=[quarter]=120
8aL
8cc
8bJ
8ccL
8a
8eJ
=2
8cL
16ccL
16ccJ
8ccJ
8cc
4ee
=3
8r
16ccLL
16ccJ
8ccJ
8cc
4ee
=4
8r
16bLL
16bJ
8bJ
8b
4dd
=5
8r
16bLL
16bJ
8bJ
8b
4dd
=6
8r
16bLL
16bJ
8bJ
8b
4dd
!!linebreak:original
=7
8r
16bLL
16bJ
8bJ
8b
4dd
=8
8r
16bLL
16bJ
8bJ
8bL
8dd
8ccJ
=9
16fLL
16e
16d#X
16e
16f
16eJJ
16d#LL
16e
16f
16f#X
16g
16g#XJJ
=10
4.a
8r
16g#XLL
16b
16dd
16eeJJ
=11
4.cc
8r
16g#XLL
16b
16dd
16eeJJ
!!linebreak:original
=12
8.ccL
16fk
8eJ
8dL
8c
8BJ
=13!|:
8aL
8cc
8bJ
8cc
4ee
=14
(4.dd
4.dd)
=15
8bL
8dd
8cc#XJ
8ddL
8cc#
8ddJ
=16
4ee
(8ee
4.ee)
=17
8aaL
8aa
8aaJ
8aa
4aa
=18
8ggL
8gg
8ff#XJ
8eeL
8dd
(8ggJ
!!linebreak:original
=19
8ggL)
8ff#X
8eeJ
8eeL
8cc#X
8ddJ
=20
(4.cc
4.cc)
=21
8aaL
8aa
8aaJ
8aa
4aa
=22
8ggL
8gg
8ff#XJ
8eeL
8dd
(8ggJ
=23
8ggL)
8ff#X
8eeJ
8eeL
8cc#X
8ddJ
=24
(4.cc
4.cc)
=25:|!
8aL
8cc
(8bJ
8b)
4ee
!!linebreak:original
=26
(4.dd
4.dd)
=27
8bL
8dd
8cc#XJ
8ddL
8cc#
8ddJ
=28
(4.ee
4.ee)
=29
8ggL
8gg
8ggJ
8aa
4aa
=30
8ggL
8aa
8ggJ
8ff#XL
8ee
(8ggJ
=31
8ggL)
8ff#X
8eeJ
8eeL
8cc#X
8ddJ
!!linebreak:original
=32
(4.cc
4.cc)
=33
8aaL
8aa
8aaJ
8aa
4aa
=34
8ggL
8aa
8ggJ
8ff#XL
8ee
(8ggJ
=35
8ggL)
8ff#X
8eeJ
8eeL
8cc#X
8ddJ
=36
(4.cc
4.cc)
==
*-